X: 1140
T: Cold Frosty Morning
B: steve's tunes
M:4/4
L:1/8
R: reel
Q: 1/4=130
K:Am
V:1 
EG|:"Am"[GA]AAc AGEG | ABcd e2E^F | "G"^FGBA G2BA | GABc dBcB |
"Am"A2Ac AGEG | ABcd e2ag | edce "G"BAGA |[1 "Am"[A2e]Ac A2EG:| [2"Am"[A2e]Ac A2eg||
|:"A"gaab a2ag | abag e2Bd | "G"e2^f2g2 (3fgf | edBd e2EG |
"Am"AGA2 "C"cAc2 | "D"dcd2 "E"e2ag | "Am"edce "G"BAGA |[1 "Am"[A2e]Ac A2eg:| [2 "Am"[A2e]Ac A4|]
% abcbook-tune_id 6298c245b639e34cd43e51c0


% abcbook-boost 3
% abcbook-tablature 
% abcbook-transpose 
% abcbook-lastupdated 1655812259484
% abcbook-soundfonts 
% abcbook-repeats 3


